X:1
T:The Girl from the Big House
R:jig
M:6/8
L:1/8
K:Dmix
AG | F2D DAG |AFA GEA | DED AGE | F2D DAG | 
F3 G3 | AGA c2A | dcA GEA |1 DED D :|2 DED DAB |: 
c2B AGF | G3 GFG | AdB cAG | Ad^c dag |
f2d cAG | FGA GED | dcA GEA |1 DED DAB :|2 DED DAG |]
